flaticon/fitness/scale.svg

<svg xmlns="http://www.w3.org/2000/svg" width="32" height="32" viewBox="0 0 24 24">
    <path d="M 19.472656 21.5625 L 18.914062 12.613281 C 18.832031 11.414062 17.832031 10.453125 16.59375 10.453125 L 13.597656 10.453125 L 13.597656 9.613281 L 17.195312 9.613281 C 17.59375 9.613281 17.953125 9.414062 18.152344 9.054688 L 18.3125 8.695312 C 18.472656 8.375 18.472656 8.015625 18.273438 7.695312 C 18.074219 7.417969 17.753906 7.21875 17.394531 7.21875 L 15.234375 7.21875 C 15.40625 7.019531 15.542969 6.789062 15.636719 6.539062 L 15.714844 6.296875 C 16.074219 5.058594 16.074219 3.742188 15.714844 2.542969 C 15.316406 1.542969 14.277344 0.902344 13.199219 1.0625 L 12.597656 1.144531 L 12.800781 0.542969 C 12.878906 0.304688 12.757812 0.105469 12.558594 0.0234375 C 12.320312 -0.0546875 12.121094 0.0664062 12.039062 0.265625 L 11.734375 1.179688 L 10.761719 1.023438 C 9.683594 0.902344 8.644531 1.503906 8.242188 2.542969 C 7.882812 3.621094 7.882812 4.898438 8.242188 6.296875 L 8.324219 6.5 C 8.429688 6.769531 8.582031 7.011719 8.765625 7.21875 L 6.804688 7.21875 C 6.484375 7.21875 6.207031 7.378906 6.007812 7.617188 C 5.804688 7.855469 5.726562 8.175781 5.804688 8.496094 L 5.886719 8.855469 C 6.007812 9.296875 6.40625 9.613281 6.886719 9.613281 L 10.402344 9.613281 L 10.402344 10.453125 L 7.40625 10.453125 C 6.167969 10.453125 5.167969 11.414062 5.085938 12.613281 L 4.527344 21.5625 C 4.488281 22.203125 4.726562 22.800781 5.167969 23.28125 C 5.605469 23.761719 6.207031 24 6.84375 24 L 17.15625 24 C 17.792969 24 18.394531 23.761719 18.832031 23.28125 C 19.273438 22.839844 19.511719 22.203125 19.472656 21.5625 Z M 9.121094 6.21875 L 9.042969 6.058594 C 8.722656 4.898438 8.722656 3.742188 9.042969 2.820312 C 9.28125 2.222656 9.84375 1.824219 10.480469 1.824219 C 10.523438 1.824219 10.601562 1.824219 10.640625 1.824219 L 11.921875 2.023438 C 11.960938 2.023438 12 2.023438 12.039062 2.023438 L 13.359375 1.824219 C 14.039062 1.742188 14.757812 2.144531 14.996094 2.78125 C 15.316406 3.820312 15.316406 4.980469 14.996094 6.019531 L 14.917969 6.21875 C 14.675781 6.816406 14.117188 7.21875 13.476562 7.21875 L 10.5625 7.21875 C 9.921875 7.21875 9.363281 6.816406 9.121094 6.21875 Z M 6.683594 8.65625 L 6.605469 8.296875 C 6.566406 8.214844 6.605469 8.136719 6.644531 8.097656 C 6.644531 8.058594 6.726562 8.015625 6.804688 8.015625 L 6.804688 7.976562 L 10.097656 7.976562 C 10.234375 8.003906 10.378906 8.015625 10.523438 8.015625 L 13.4375 8.015625 C 13.589844 8.015625 13.738281 8.003906 13.878906 7.976562 L 17.355469 7.976562 C 17.472656 7.976562 17.554688 8.058594 17.554688 8.097656 C 17.554688 8.136719 17.59375 8.214844 17.554688 8.335938 L 17.394531 8.695312 C 17.355469 8.777344 17.273438 8.816406 17.195312 8.816406 L 6.886719 8.816406 C 6.804688 8.816406 6.683594 8.734375 6.683594 8.65625 Z M 12.800781 9.613281 L 12.800781 10.414062 L 11.199219 10.414062 L 11.199219 9.613281 Z M 18.273438 22.722656 C 17.953125 23.039062 17.59375 23.199219 17.15625 23.199219 L 6.84375 23.199219 C 6.40625 23.199219 6.046875 23.039062 5.726562 22.722656 C 5.445312 22.441406 5.285156 22.042969 5.328125 21.601562 L 5.886719 12.652344 C 5.925781 11.851562 6.605469 11.214844 7.40625 11.214844 L 16.59375 11.214844 C 17.394531 11.214844 18.074219 11.851562 18.113281 12.652344 L 18.671875 21.601562 C 18.714844 22.003906 18.554688 22.402344 18.273438 22.722656 Z M 18.273438 22.722656"/>
    <path d="M 12 12.410156 C 9.363281 12.410156 7.203125 14.570312 7.203125 17.207031 C 7.203125 19.84375 9.363281 22.003906 12 22.003906 C 14.636719 22.003906 16.796875 19.84375 16.796875 17.207031 C 16.796875 14.570312 14.636719 12.410156 12 12.410156 Z M 12 21.203125 C 9.800781 21.203125 8.003906 19.40625 8.003906 17.207031 C 8.003906 15.007812 9.800781 13.210938 12 13.210938 C 14.199219 13.210938 15.996094 15.007812 15.996094 17.207031 C 15.996094 19.40625 14.199219 21.203125 12 21.203125 Z M 12 21.203125"/>
    <path d="M 13.429688 17.917969 C 13.539062 17.703125 13.597656 17.460938 13.597656 17.207031 C 13.597656 16.328125 12.878906 15.609375 12 15.609375 C 11.121094 15.609375 10.402344 16.328125 10.402344 17.207031 C 10.402344 18.085938 11.121094 18.804688 12 18.804688 C 12.339844 18.804688 12.652344 18.699219 12.910156 18.519531 L 13.558594 19.164062 C 13.636719 19.246094 13.71875 19.285156 13.839844 19.285156 C 13.957031 19.285156 14.039062 19.246094 14.117188 19.164062 C 14.277344 19.003906 14.277344 18.765625 14.117188 18.605469 Z M 11.199219 17.207031 C 11.199219 16.765625 11.558594 16.40625 12 16.40625 C 12.441406 16.40625 12.800781 16.765625 12.800781 17.207031 C 12.800781 17.394531 12.734375 17.5625 12.625 17.699219 C 12.617188 17.710938 12.609375 17.722656 12.601562 17.730469 C 12.453125 17.898438 12.238281 18.007812 12 18.007812 C 11.558594 18.007812 11.199219 17.648438 11.199219 17.207031 Z M 11.199219 17.207031"/>
</svg>

<svg xmlns="http://www.w3.org/2000/svg" width="32" height="32" viewBox="0 0 24 24">
    <path d="M19.473 21.563l-.559-8.95a2.324 2.324 0 0 0-2.32-2.16h-2.996v-.84h3.597c.399 0 .758-.199.957-.558l.16-.36c.16-.32.16-.68-.039-1-.199-.277-.52-.476-.878-.476h-2.16c.171-.2.308-.43.402-.68l.078-.242a6.67 6.67 0 0 0 0-3.754c-.399-1-1.438-1.64-2.516-1.48l-.601.082.203-.602c.078-.238-.043-.438-.242-.52-.239-.078-.438.043-.52.243l-.305.914-.972-.157a2.401 2.401 0 0 0-2.52 1.52c-.36 1.078-.36 2.355 0 3.754l.082.203c.106.27.258.512.442.719H6.805c-.32 0-.598.16-.797.398-.203.238-.281.559-.203.88l.082.358c.12.442.52.758 1 .758h3.515v.84H7.406c-1.238 0-2.238.961-2.32 2.16l-.559 8.95c-.039.64.2 1.238.641 1.718.437.48 1.039.719 1.676.719h10.312c.637 0 1.239-.238 1.676-.719.441-.441.68-1.078.64-1.718zM9.12 6.219l-.078-.16c-.32-1.16-.32-2.317 0-3.239.238-.597.8-.996 1.437-.996h.16l1.282.2h.117l1.32-.2c.68-.082 1.399.32 1.637.957.32 1.04.32 2.2 0 3.239l-.078.199c-.242.597-.8 1-1.441 1h-2.915c-.64 0-1.199-.403-1.44-1zM6.684 8.656l-.079-.36c-.039-.081 0-.16.04-.198 0-.04.082-.082.16-.082v-.04h3.293c.136.028.28.04.425.04h2.915c.152 0 .3-.012.44-.04h3.477c.118 0 .2.083.2.122 0 .039.039.117 0 .238l-.16.36a.217.217 0 0 1-.2.12H6.887c-.082 0-.203-.082-.203-.16zm6.117.957v.801h-1.602v-.8zm5.472 13.11c-.32.316-.68.476-1.117.476H6.844c-.438 0-.797-.16-1.117-.476a1.38 1.38 0 0 1-.399-1.121l.559-8.95c.039-.8.718-1.437 1.52-1.437h9.187c.8 0 1.48.637 1.52 1.437l.558 8.95c.043.402-.117.8-.399 1.12zm0 0"/>
    <path d="M12 12.41c-2.637 0-4.797 2.16-4.797 4.797 0 2.637 2.16 4.797 4.797 4.797 2.637 0 4.797-2.16 4.797-4.797 0-2.637-2.16-4.797-4.797-4.797zm0 8.793a4.006 4.006 0 0 1-3.996-3.996c0-2.2 1.797-3.996 3.996-3.996 2.2 0 3.996 1.797 3.996 3.996 0 2.2-1.797 3.996-3.996 3.996zm0 0"/>
    <path d="M13.43 17.918c.11-.215.168-.457.168-.711 0-.879-.72-1.598-1.598-1.598-.879 0-1.598.72-1.598 1.598 0 .879.72 1.598 1.598 1.598.34 0 .652-.106.91-.285l.649.644c.078.082.16.121.28.121.118 0 .2-.039.278-.12a.385.385 0 0 0 0-.56zm-2.23-.711a.802.802 0 0 1 1.6 0 .78.78 0 0 1-.175.492.805.805 0 0 1-.625.309c-.441 0-.8-.36-.8-.801zm0 0"/>
</svg>
